build/finance/CVVOutline.svg

<svg xmlns="http://www.w3.org/2000/svg" fill="none" viewBox="0 0 24 24" focusable="false"><path d="M0 0H24V24H0z"/><path fill="#74767B" fill-rule="evenodd" d="M3 16C3 17.6569 4.34314 19 6 19L18 19C19.6569 19 21 17.6569 21 16L21 8C21 6.4467 19.8195 5.16912 18.3067 5.01549C18.2059 5.00525 18.1036 5 18 5L6 5C4.34315 5 3 6.34315 3 8L3 16ZM18 6.3C18.9389 6.3 19.7 7.06112 19.7 8L19.7 8.28955L4.49531 8.28955C4.42726 8.28955 4.36165 8.30001 4.3 8.3194L4.3 8C4.3 7.06112 5.06112 6.3 6 6.3L18 6.3ZM4.3 9.5597L4.3 16C4.3 16.9389 5.06112 17.7 6 17.7L18 17.7C18.9389 17.7 19.7 16.9389 19.7 16L19.7 9.58955L4.49531 9.58955C4.42726 9.58955 4.36165 9.57909 4.3 9.5597ZM10.2751 12.1764C10.2116 11.7796 10.5182 11.4201 10.9201 11.4201C11.2382 11.4201 11.51 11.6492 11.5638 11.9627L11.8971 13.9044C11.916 14.0146 12.0742 14.0148 12.0935 13.9047L12.4332 11.9608C12.4878 11.6482 12.7592 11.4201 13.0765 11.4201C13.4792 11.4201 13.786 11.7809 13.7212 12.1783L13.3188 14.6457C13.2129 15.2948 12.6522 15.7716 11.9944 15.7716C11.3352 15.7716 10.7736 15.2927 10.6694 14.6417L10.2751 12.1764ZM15.5138 11.4201C15.1119 11.4201 14.8054 11.7796 14.8689 12.1764L15.2632 14.6417C15.3673 15.2927 15.9289 15.7716 16.5882 15.7716C17.2459 15.7716 17.8067 15.2948 17.9126 14.6457L18.3149 12.1783C18.3797 11.7809 18.073 11.4201 17.6703 11.4201C17.3529 11.4201 17.0815 11.6482 17.0269 11.9608L16.6873 13.9047C16.668 14.0148 16.5098 14.0146 16.4908 13.9044L16.1576 11.9627C16.1037 11.6492 15.8319 11.4201 15.5138 11.4201ZM6.97643 13.5044C6.97643 12.8279 7.3914 12.5401 7.61584 12.5401C7.729 12.5401 7.85942 12.5905 7.98391 12.7266C8.22621 12.9915 8.63736 13.0098 8.90224 12.7675C9.16711 12.5252 9.18541 12.114 8.94311 11.8492C8.61431 11.4897 8.1517 11.2401 7.61584 11.2401C6.41603 11.2401 5.67643 12.3977 5.67643 13.5044C5.67643 14.6111 6.41603 15.7688 7.61584 15.7688C8.19676 15.7688 8.68912 15.4763 9.02146 15.069C9.24839 14.7908 9.20687 14.3813 8.92871 14.1544C8.65055 13.9275 8.2411 13.969 8.01416 14.2472C7.88146 14.4098 7.73714 14.4688 7.61584 14.4688C7.3914 14.4688 6.97643 14.1809 6.97643 13.5044Z"/></svg>

<svg xmlns="http://www.w3.org/2000/svg" fill="none" viewBox="0 0 24 24" focusable="false"><path fill="#74767B" fill-rule="evenodd" d="M3 16c0 1.65 1.34 3 3 3h12c1.65 0 3-1.35 3-3V8c0-1.56-1.19-2.84-2.7-2.99C18.2 5 18.1 5 18 5H6C4.34 5 3 6.34 3 8zm15-9.7c.93 0 1.7.76 1.7 1.7v.28H4.49c-.07 0-.13.02-.19.03V8c0-.94.76-1.7 1.7-1.7zM4.3 9.55V16c0 .93.76 1.7 1.7 1.7h12c.93 0 1.7-.77 1.7-1.7V9.58H4.49c-.07 0-.13-.01-.19-.03m5.97 2.62c-.06-.4.24-.75.65-.75.31 0 .59.22.64.54l.33 1.94c.02.11.18.11.2 0l.34-1.94c.05-.32.32-.54.64-.54.4 0 .71.36.65.75l-.41 2.47c-.1.65-.66 1.13-1.32 1.13s-1.22-.48-1.33-1.13zm5.24-.75c-.4 0-.71.35-.65.75l.4 2.47c.1.65.66 1.13 1.32 1.13s1.22-.48 1.33-1.13l.4-2.47a.655.655 0 0 0-1.29-.21l-.34 1.94c-.02.11-.18.11-.19 0l-.34-1.94a.64.64 0 0 0-.64-.54M6.97 13.5c0-.68.42-.96.64-.96.11 0 .24.05.37.18.24.27.65.28.92.04.26-.24.28-.65.04-.92-.33-.36-.79-.6-1.33-.6-1.2 0-1.94 1.15-1.94 2.26s.74 2.26 1.94 2.26c.58 0 1.07-.29 1.41-.7.22-.27.18-.68-.1-.91a.64.64 0 0 0-.91.09c-.13.16-.28.22-.4.22-.22 0-.64-.28-.64-.96"/></svg>
